img/svg/VK.svg

<svg width="24" height="24" viewBox="0 0 24 24" fill="none" xmlns="http://www.w3.org/2000/svg">
<path fill-rule="evenodd" clip-rule="evenodd" d="M23.7862 17.488C23.7841 17.4844 23.7816 17.4801 23.7787 17.4749L23.7776 17.4727C23.7739 17.466 23.7696 17.4581 23.7647 17.4489M23.7647 17.4489C23.7696 17.4581 23.7739 17.466 23.7776 17.4727C23.7809 17.4789 23.7838 17.4839 23.7862 17.488" fill="#101010"/>
<path d="M13.177 18.9415C13.177 18.9415 13.6101 18.8923 13.832 18.6486C14.0351 18.4254 14.028 18.0041 14.028 18.0041C14.028 18.0041 14.001 16.0369 14.8943 15.7464C15.4263 15.5738 16.0497 16.3045 16.7244 17.0955C17.1662 17.6135 17.6301 18.1573 18.1048 18.4902C19.011 19.1263 19.6989 18.9871 19.6989 18.9871L22.9046 18.9415C22.9046 18.9415 24.5809 18.8359 23.7862 17.488C23.7838 17.4839 23.7809 17.4789 23.7776 17.4727L23.7647 17.4489C23.6506 17.2362 23.1755 16.3511 21.4033 14.6686L21.3478 14.616C20.535 13.8453 20.1109 13.4431 20.0663 12.9995C20.0038 12.3787 20.6844 11.6768 22.0829 9.77039C23.5573 7.76117 24.1465 6.53452 23.9622 6.01001C23.7873 5.50831 22.7027 5.64154 22.7027 5.64154L19.0943 5.66434C19.0943 5.66434 18.8267 5.62713 18.6283 5.74836C18.4346 5.86718 18.309 6.14444 18.309 6.14444C18.309 6.14444 17.7385 7.69876 16.9767 9.02143C15.3697 11.8108 14.7276 11.9584 14.4647 11.7856C13.952 11.4465 13.9764 10.5355 13.9976 9.73992C14.0017 9.58651 14.0057 9.43739 14.0057 9.29749C14.0057 8.67494 14.027 8.13598 14.0453 7.67156C14.1066 6.11868 14.1351 5.39915 13.2251 5.17464C12.8331 5.07742 12.5443 5.01381 11.5407 5.003C10.253 4.9898 9.16364 5.0078 8.54619 5.31627C8.13535 5.52151 7.81841 5.98 8.0121 6.00641C8.25039 6.03882 8.79035 6.15524 9.07677 6.55372C9.44653 7.06863 9.43362 8.22327 9.43362 8.22327C9.43362 8.22327 9.64608 11.4063 8.93708 11.8012C8.45111 12.0725 7.78437 11.5192 6.35111 8.98783C5.61746 7.69156 5.06341 6.25846 5.06341 6.25846C5.06341 6.25846 4.95659 5.99081 4.76525 5.84678C4.53401 5.67274 4.2112 5.61873 4.2112 5.61873L0.782411 5.64154C0.782411 5.64154 0.267094 5.65594 0.0781053 5.88519C-0.0897537 6.08803 0.0651931 6.50931 0.0651931 6.50931C0.0651931 6.50931 2.74977 12.9318 5.79002 16.1689C8.57789 19.1359 11.7426 18.9415 11.7426 18.9415H13.177Z" fill="#101010"/>
</svg>

<svg width="24" height="24" fill="none" xmlns="http://www.w3.org/2000/svg"><path fill-rule="evenodd" clip-rule="evenodd" d="M23.786 17.488a.748.748 0 01-.007-.013l-.001-.002a1.782 1.782 0 01-.013-.024m0 0a1.782 1.782 0 00.021.039" fill="#101010"/><path d="M13.177 18.942s.433-.05.655-.293c.203-.224.196-.645.196-.645s-.027-1.967.866-2.258c.532-.172 1.156.559 1.83 1.35.442.517.906 1.061 1.38 1.394.907.636 1.595.497 1.595.497l3.206-.045s1.676-.106.881-1.454a.416.416 0 01-.008-.015l-.013-.024c-.114-.213-.59-1.098-2.362-2.78l-.055-.053c-.813-.77-1.237-1.173-1.282-1.617-.062-.62.618-1.322 2.017-3.229 1.474-2.009 2.064-3.235 1.88-3.76-.176-.502-1.26-.368-1.26-.368l-3.609.022s-.267-.037-.466.084c-.193.12-.319.396-.319.396s-.57 1.555-1.332 2.877c-1.607 2.79-2.25 2.937-2.512 2.765-.513-.34-.489-1.25-.467-2.046.004-.153.008-.303.008-.443 0-.622.021-1.161.04-1.625.06-1.553.09-2.273-.82-2.497-.393-.098-.682-.161-1.685-.172-1.288-.013-2.377.005-2.995.313-.41.206-.728.664-.534.69.238.033.778.15 1.065.548.37.515.357 1.67.357 1.67s.212 3.182-.497 3.577c-.486.271-1.153-.282-2.586-2.813-.734-1.296-1.288-2.73-1.288-2.73s-.106-.267-.298-.411a1.455 1.455 0 00-.554-.228l-3.429.023s-.515.014-.704.243c-.168.203-.013.624-.013.624s2.685 6.423 5.725 9.66c2.788 2.967 5.953 2.773 5.953 2.773h1.434z" fill="#101010"/></svg>
